Numix-GalliumOS/16/devices/media-tape.svg

<?xml version="1.0" encoding="UTF-8" standalone="no"?>
<svg
   xmlns:dc="http://purl.org/dc/elements/1.1/"
   xmlns:cc="http://creativecommons.org/ns#"
   xmlns:rdf="http://www.w3.org/1999/02/22-rdf-syntax-ns#"
   xmlns:svg="http://www.w3.org/2000/svg"
   xmlns="http://www.w3.org/2000/svg"
   xmlns:sodipodi="http://sodipodi.sourceforge.net/DTD/sodipodi-0.dtd"
   xmlns:inkscape="http://www.inkscape.org/namespaces/inkscape"
   viewBox="0 0 16 16"
   id="svg2"
   version="1.1"
   inkscape:version="0.91 r"
   sodipodi:docname="media-tape.svg"
   width="16"
   height="16">
  <metadata
     id="metadata12">
    <rdf:RDF>
      <cc:Work
         rdf:about="">
        <dc:format>image/svg+xml</dc:format>
        <dc:type
           rdf:resource="http://purl.org/dc/dcmitype/StillImage" />
        <dc:title />
      </cc:Work>
    </rdf:RDF>
  </metadata>
  <defs
     id="defs10" />
  <sodipodi:namedview
     pagecolor="#ffffff"
     bordercolor="#666666"
     borderopacity="1"
     objecttolerance="10"
     gridtolerance="10"
     guidetolerance="10"
     inkscape:pageopacity="0"
     inkscape:pageshadow="2"
     inkscape:window-width="1920"
     inkscape:window-height="1056"
     id="namedview8"
     showgrid="true"
     inkscape:zoom="39.333332"
     inkscape:cx="6.8903645"
     inkscape:cy="10.580616"
     inkscape:window-x="0"
     inkscape:window-y="24"
     inkscape:window-maximized="1"
     inkscape:current-layer="svg2">
    <inkscape:grid
       type="xygrid"
       id="grid4151" />
  </sodipodi:namedview>
  <circle
     style="opacity:1;fill:#262626;fill-opacity:1;fill-rule:nonzero;stroke:none;stroke-width:2;stroke-linecap:round;stroke-linejoin:miter;stroke-miterlimit:4;stroke-dasharray:none;stroke-dashoffset:0;stroke-opacity:1"
     id="path4176"
     cx="5.75"
     cy="8.5"
     r="2.625" />
  <circle
     r="2.25"
     cy="8.5"
     cx="10.25"
     id="circle4187"
     style="opacity:1;fill:#262626;fill-opacity:1;fill-rule:nonzero;stroke:none;stroke-width:2;stroke-linecap:round;stroke-linejoin:miter;stroke-miterlimit:4;stroke-dasharray:none;stroke-dashoffset:0;stroke-opacity:1" />
  <circle
     style="opacity:1;fill:#ffffff;fill-opacity:1;fill-rule:nonzero;stroke:none;stroke-width:2;stroke-linecap:round;stroke-linejoin:miter;stroke-miterlimit:4;stroke-dasharray:none;stroke-dashoffset:0;stroke-opacity:1"
     id="path4189"
     cx="5.75"
     cy="8.5"
     r="1.125" />
  <circle
     r="1.125"
     cy="8.5"
     cx="10.25"
     id="circle4191"
     style="opacity:1;fill:#ffffff;fill-opacity:1;fill-rule:nonzero;stroke:none;stroke-width:2;stroke-linecap:round;stroke-linejoin:miter;stroke-miterlimit:4;stroke-dasharray:none;stroke-dashoffset:0;stroke-opacity:1" />
  <path
     style="opacity:1;fill:#838488;fill-opacity:1;fill-rule:nonzero;stroke:none;stroke-width:2;stroke-linecap:round;stroke-linejoin:miter;stroke-miterlimit:4;stroke-dasharray:none;stroke-dashoffset:0;stroke-opacity:1"
     d="M 0.44140625 3 C 0.19699455 3 -1.110223e-16 3.2031143 0 3.4570312 L 0 12.5 C 0 12.777 0.223 13 0.5 13 L 15.5 13 C 15.777 13 16 12.777 16 12.5 L 16 3.4570312 C 16 3.2031144 15.803005 3 15.558594 3 L 0.44140625 3 z M 1.9277344 6 L 5 6 L 5 11 L 1.9277344 11 L 1.7695312 10.722656 C 1.0675142 9.3475414 1.0675142 7.6524597 1.7695312 6.2773438 C 1.8193913 6.1825548 1.8717864 6.0903322 1.9277344 6 z M 11 6 L 14.072266 6 L 14.230469 6.2773438 C 14.932486 7.6524588 14.932486 9.3475405 14.230469 10.722656 C 14.180609 10.817446 14.128214 10.909668 14.072266 11 L 11 11 L 11 6 z "
     id="rect4155" />
  <path
     style="fill:#383838;fill-opacity:1;fill-rule:evenodd;stroke:none;stroke-width:1px;stroke-linecap:butt;stroke-linejoin:miter;stroke-opacity:1"
     d="M 0,5 1,5 1,4 15,4 15,5 16,5 16,3 0,3 Z"
     id="path4153"
     inkscape:connector-curvature="0"
     sodipodi:nodetypes="ccccccccc" />
  <rect
     style="opacity:1;fill:#fffcd3;fill-opacity:1;fill-rule:nonzero;stroke:none;stroke-width:2;stroke-linecap:round;stroke-linejoin:miter;stroke-miterlimit:4;stroke-dasharray:none;stroke-dashoffset:0;stroke-opacity:1"
     id="rect4195"
     width="4"
     height="4.5"
     x="6"
     y="6.5"
     rx="0.25"
     ry="0.25" />
  <rect
     style="opacity:1;fill:#f57979;fill-opacity:1;fill-rule:nonzero;stroke:none;stroke-width:2;stroke-linecap:round;stroke-linejoin:miter;stroke-miterlimit:4;stroke-dasharray:none;stroke-dashoffset:0;stroke-opacity:1"
     id="rect4193"
     width="4"
     height="1"
     x="6"
     y="6"
     rx="0.25"
     ry="0.25" />
  <path
     style="opacity:0.51399997;fill:#bcbcbc;fill-opacity:1;fill-rule:nonzero;stroke:none;stroke-width:2;stroke-linecap:round;stroke-linejoin:miter;stroke-miterlimit:4;stroke-dasharray:none;stroke-dashoffset:0;stroke-opacity:1"
     d="m 13,3 0,3 1,0 0,-3 z m 0,8 0,2 1,0 0,-2 z"
     id="rect4171"
     inkscape:connector-curvature="0"
     sodipodi:nodetypes="cccccccccc" />
</svg>

<svg xmlns="http://www.w3.org/2000/svg" viewBox="0 0 16 16">
 <circle cx="5.75" cy="8.5" r="2.625" style="fill:#262626;opacity:1;fill-opacity:1;stroke:none;fill-rule:nonzero"/>
 <circle r="2.25" cy="8.5" cx="10.25" style="fill:#262626;opacity:1;fill-opacity:1;stroke:none;fill-rule:nonzero"/>
 <circle cx="5.75" cy="8.5" r="1.125" style="fill:#fff;opacity:1;fill-opacity:1;stroke:none;fill-rule:nonzero"/>
 <circle r="1.125" cy="8.5" cx="10.25" style="fill:#fff;opacity:1;fill-opacity:1;stroke:none;fill-rule:nonzero"/>
 <path d="m 0.441 3 c -0.244 0 -0.441 0.203 -0.441 0.457 l 0 9.04 c 0 0.277 0.223 0.5 0.5 0.5 l 15 0 c 0.277 0 0.5 -0.223 0.5 -0.5 l 0 -9.04 c 0 -0.254 -0.197 -0.457 -0.441 -0.457 l -15.12 0 z m 1.486 3 l 3.072 0 l 0 5 l -3.072 0 l -0.158 -0.277 c -0.702 -1.375 -0.702 -3.07 0 -4.445 c 0.05 -0.095 0.102 -0.187 0.158 -0.277 z m 9.07 0 l 3.072 0 l 0.158 0.277 c 0.702 1.375 0.702 3.07 0 4.445 c -0.05 0.095 -0.102 0.187 -0.158 0.277 l -3.072 0 l 0 -5 z" style="fill:#838488;opacity:1;fill-opacity:1;stroke:none;fill-rule:nonzero"/>
 <path d="m 0 5 1 0 0 -1 14 0 0 1 1 0 0 -2 -16 0" style="fill:#383838;fill-opacity:1;stroke:none;fill-rule:evenodd"/>
 <rect width="4" height="4.5" x="6" y="6.5" rx="0.25" style="fill:#fffcd3;opacity:1;fill-opacity:1;stroke:none;fill-rule:nonzero"/>
 <rect width="4" height="1" x="6" y="6" rx="0.25" style="fill:#f57979;opacity:1;fill-opacity:1;stroke:none;fill-rule:nonzero"/>
 <path d="m 13 3 0 3 1 0 0 -3 z m 0 8 0 2 1 0 0 -2 z" style="fill:#bcbcbc;opacity:0.514;fill-opacity:1;stroke:none;fill-rule:nonzero"/>
</svg>
